public/glyphs/glyph-duplicate.svg

<svg width="16" height="16" viewBox="0 0 16 16" fill="none" xmlns="http://www.w3.org/2000/svg">
<rect x="0.666667" y="4.66667" width="10.6667" height="10.6667" rx="0.666667" stroke="#81A7FF" stroke-width="1.33333"/>
<mask id="path-2-inside-1" fill="white">
<path d="M4 2.13333V2.66667H5.33333V1.33333H14.6667V10.6667H13.3333V12H13.8667C14.6134 12 14.9868 12 15.272 11.8547C15.5229 11.7268 15.7268 11.5229 15.8547 11.272C16 10.9868 16 10.6134 16 9.86667V2.13333C16 1.3866 16 1.01323 15.8547 0.728013C15.7268 0.47713 15.5229 0.273156 15.272 0.145325C14.9868 0 14.6134 0 13.8667 0H6.13333C5.3866 0 5.01323 0 4.72801 0.145325C4.47713 0.273156 4.27316 0.47713 4.14532 0.728013C4 1.01323 4 1.3866 4 2.13333Z"/>
</mask>
<path d="M4 2.66667H2.66667V4H4V2.66667ZM13.3333 12H12V13.3333H13.3333V12ZM13.3333 10.6667V9.33333H12V10.6667H13.3333ZM14.6667 10.6667V12H16V10.6667H14.6667ZM14.6667 1.33333H16V0H14.6667V1.33333ZM5.33333 1.33333V0H4V1.33333H5.33333ZM5.33333 2.66667V4H6.66667V2.66667H5.33333ZM15.8547 11.272L14.6667 10.6667L14.6667 10.6667L15.8547 11.272ZM15.272 11.8547L14.6667 10.6667L14.6667 10.6667L15.272 11.8547ZM15.272 0.145325L15.8773 -1.04268L15.8773 -1.04268L15.272 0.145325ZM15.8547 0.728013L14.6667 1.33333L14.6667 1.33333L15.8547 0.728013ZM4.14532 0.728013L5.33333 1.33333L5.33333 1.33333L4.14532 0.728013ZM4.72801 0.145325L5.33333 1.33333L5.33333 1.33333L4.72801 0.145325ZM5.33333 2.66667V2.13333H2.66667V2.66667H5.33333ZM6.13333 1.33333H13.8667V-1.33333H6.13333V1.33333ZM14.6667 2.13333V9.86667H17.3333V2.13333H14.6667ZM13.8667 10.6667H13.3333V13.3333H13.8667V10.6667ZM14.6667 12V10.6667H12V12H14.6667ZM13.3333 12H14.6667V9.33333H13.3333V12ZM16 10.6667V1.33333H13.3333V10.6667H16ZM14.6667 0H5.33333V2.66667H14.6667V0ZM4 1.33333V2.66667H6.66667V1.33333H4ZM5.33333 1.33333H4V4H5.33333V1.33333ZM14.6667 9.86667C14.6667 10.262 14.6656 10.4784 14.6529 10.6338C14.6415 10.7737 14.6276 10.7433 14.6667 10.6667L17.0427 11.8773C17.2271 11.5154 17.2858 11.1558 17.3107 10.851C17.3344 10.5617 17.3333 10.218 17.3333 9.86667H14.6667ZM13.8667 13.3333C14.218 13.3333 14.5617 13.3344 14.851 13.3107C15.1558 13.2858 15.5154 13.2271 15.8773 13.0427L14.6667 10.6667C14.7433 10.6276 14.7737 10.6415 14.6338 10.6529C14.4784 10.6656 14.262 10.6667 13.8667 10.6667V13.3333ZM14.6667 10.6667L14.6667 10.6667L15.8773 13.0427C16.3791 12.787 16.787 12.3791 17.0427 11.8773L14.6667 10.6667ZM13.8667 1.33333C14.262 1.33333 14.4784 1.33437 14.6338 1.34707C14.7737 1.3585 14.7434 1.37241 14.6667 1.33333L15.8773 -1.04268C15.5154 -1.22708 15.1558 -1.28584 14.851 -1.31074C14.5617 -1.33437 14.218 -1.33333 13.8667 -1.33333V1.33333ZM17.3333 2.13333C17.3333 1.78197 17.3344 1.43825 17.3107 1.14903C17.2858 0.844236 17.2271 0.48459 17.0427 0.122692L14.6667 1.33333C14.6276 1.25665 14.6415 1.2263 14.6529 1.36618C14.6656 1.52163 14.6667 1.73796 14.6667 2.13333H17.3333ZM14.6667 1.33333L14.6667 1.33333L17.0427 0.122694C16.787 -0.379074 16.3791 -0.787022 15.8773 -1.04268L14.6667 1.33333ZM5.33333 2.13333C5.33333 1.73796 5.33437 1.52163 5.34707 1.36618C5.3585 1.2263 5.37241 1.25665 5.33333 1.33333L2.95732 0.122692C2.77292 0.48459 2.71416 0.844236 2.68926 1.14903C2.66563 1.43825 2.66667 1.78197 2.66667 2.13333H5.33333ZM6.13333 -1.33333C5.78197 -1.33333 5.43825 -1.33437 5.14903 -1.31074C4.84424 -1.28584 4.48459 -1.22708 4.12269 -1.04268L5.33333 1.33333C5.25665 1.37241 5.2263 1.3585 5.36618 1.34707C5.52163 1.33437 5.73796 1.33333 6.13333 1.33333V-1.33333ZM5.33333 1.33333L5.33333 1.33333L4.12269 -1.04268C3.62093 -0.787022 3.21298 -0.379074 2.95732 0.122692L5.33333 1.33333Z" fill="#81A7FF" mask="url(#path-2-inside-1)"/>
</svg>

<svg viewBox="0 0 16 16" fill="none" xmlns="http://www.w3.org/2000/svg"><rect x=".667" y="4.667" width="10.667" height="10.667" rx=".667" stroke="#81A7FF" stroke-width="1.333"/><mask id="a" fill="#fff"><path d="M4 2.133v.534h1.333V1.333h9.334v9.334h-1.334V12h.534c.746 0 1.12 0 1.405-.145.25-.128.455-.332.583-.583.145-.285.145-.659.145-1.405V2.133c0-.746 0-1.12-.145-1.405a1.334 1.334 0 0 0-.583-.583C14.987 0 14.613 0 13.867 0H6.133c-.746 0-1.12 0-1.405.145-.25.128-.455.332-.583.583C4 1.013 4 1.387 4 2.133z"/></mask><path d="M4 2.667H2.667V4H4V2.667zM13.333 12H12v1.333h1.333V12zm0-1.333V9.333H12v1.334h1.333zm1.334 0V12H16v-1.333h-1.333zm0-9.334H16V0h-1.333v1.333zm-9.334 0V0H4v1.333h1.333zm0 1.334V4h1.334V2.667H5.333zm10.522 8.605-1.188-.605 1.188.605zm-.583.583-.605-1.188.605 1.188zm0-11.71.605-1.188-.605 1.188zm.583.583-1.188.605 1.188-.605zm-11.71 0 1.188.605L4.145.728zm.583-.583.605 1.188L4.728.145zm.605 2.522v-.534H2.667v.534h2.666zm.8-1.334h7.734v-2.666H6.133v2.666zm8.534.8v7.734h2.666V2.133h-2.666zm-.8 8.534h-.534v2.666h.534v-2.666zm.8 1.333v-1.333H12V12h2.667zm-1.334 0h1.334V9.333h-1.334V12zM16 10.667V1.333h-2.667v9.334H16zM14.667 0H5.333v2.667h9.334V0zM4 1.333v1.334h2.667V1.333H4zm1.333 0H4V4h1.333V1.333zm9.334 8.534c0 .395-.001.611-.014.767-.011.14-.025.11.014.033l2.376 1.21c.184-.362.243-.721.268-1.026.023-.29.022-.633.022-.984h-2.666zm-.8 3.466c.351 0 .695.001.984-.022a2.695 2.695 0 0 0 1.026-.268l-1.21-2.376c.076-.04.107-.025-.033-.014-.156.013-.372.014-.767.014v2.666zm.8-2.666 1.21 2.376c.502-.256.91-.664 1.166-1.166l-2.376-1.21zm-.8-9.334c.395 0 .611.001.767.014.14.012.11.025.033-.014l1.21-2.376a2.695 2.695 0 0 0-1.026-.268c-.29-.023-.633-.022-.984-.022v2.666zm3.466.8c0-.351.001-.695-.022-.984a2.695 2.695 0 0 0-.268-1.026l-2.376 1.21c-.04-.076-.025-.107-.014.033.013.156.014.372.014.767h2.666zm-2.666-.8 2.376-1.21a2.667 2.667 0 0 0-1.166-1.166l-1.21 2.376zm-9.334.8c0-.395.001-.611.014-.767.011-.14.025-.11-.014-.033L2.957.123a2.695 2.695 0 0 0-.268 1.026c-.023.29-.022.633-.022.984h2.666zm.8-3.466c-.351 0-.695-.001-.984.022a2.695 2.695 0 0 0-1.026.268l1.21 2.376c-.076.04-.107.026.033.014.156-.013.372-.014.767-.014v-2.666zm-.8 2.666-1.21-2.376c-.502.256-.91.664-1.166 1.166l2.376 1.21z" fill="#81A7FF" mask="url(#a)"/></svg>
